!!!COM: Manuel de Falla (y Matheu)
!!!OTL: [T314_Fal-w7p12m159-167]
**kern	**kern	**dynam
!!pagebreak:original
*clefF4	*clefG2	*
*k[]	*k[]	*
*C:	*C:	*
*M6/8	*M6/8	*
=1	=1	=1
!	!LO:TX:t=[quarter]=88	!
!	!LO:TX:b:t=[ff]	!
4AAA'^^ 4AA	(16ff^LL 16gg#X 16eee	sfz
.	16dddJ)	.
.	8ff 8gg# 8ddd	.
8AAA^^ 8AA	8ffJ 8gg# 8ddd	.
8BBB^^L 8BB	16gg#^LL 16gggni	.
.	16fff	.
8CC^^ 8C	16eee	.
.	16ddd	.
8DD^^J 8D	16gg# 16ggg	.
.	16fffJJ	.
=2	=2	=2
8BBB^^L 8BB	16gg#X^LL 16gggni	.
.	16fff	.
8CC^^ 8C	16eee	.
.	16ddd	.
8DD^^J 8D	16gg# 16ggg	.
.	16fffJJ	.
8BBB^^L 8BB	16gg#^LL 16ggg	.
.	16fff	.
8CC^^ 8C	16eee	.
.	16ddd	.
8DD^^J 8D	16gg# 16ggg	.
.	16fffJJ	.
=3	=3	=3
4AAA'^^ 4AA	(16ff^LL 16gg#X 16eee	.
.	16dddJ)	.
.	8ff 8gg# 8ddd	.
8AAA^^ 8AA	8ffJ 8gg# 8ddd	.
8BBB^^L 8BB	8ffL 8gg# 8ddd	.
8CC^^ 8C	8ff 8gg# 8ddd	.
8DD^^J 8D	8ffJ 8gg# 8ddd	.
!!linebreak:original
=4	=4	=4
4AAA'^^ 4AA	(16ff^LL 16gg#X 16eee	.
.	16dddJ)	.
.	8ff 8gg# 8ddd	.
8AAA^^ 8AA	8ffJ 8gg# 8ddd	.
8BBB^^L 8BB	8ffL 8gg# 8ddd	.
8CC^^ 8C	8ff 8gg# 8ddd	.
8DD^^J 8D	8ffJ 8gg# 8ddd	.
=5	=5	=5
4AAA'^^ 4AA	(16ff^LL 16gg#X 16eee	.
.	16dddJ)	.
.	8ff 8gg# 8ddd	.
8AAA^^ 8AA	8ffJ 8gg# 8ddd	.
8BBB^^L 8BB	16gg#^LL 16gggni	.
.	16fff	.
8CC^^ 8C	16eee	.
.	16dddJJ	.
8DD^^J 8D	16gg#^LL 16ggg	.
.	16fff	.
=6	=6	=6
8BBB^^L 8BB	16eee	.
.	16dddJJ	.
8CC^^ 8C	16gg#X^LL 16gggni	.
.	16fff	.
8DD^^J 8D	16eee	.
.	16dddJJ	.
8BBB^^L 8BB	16gg#^LL 16ggg	.
.	16fff	.
8CC^^ 8C	16eee	.
.	16ddd	.
8DD^^J 8D	16ggg	.
.	16fffJJ	.
!!linebreak:original
=7	=7	=7
*M2/4	*M2/4	*
*	*X8va	*
.	((16qqbb/LL	fff
!	!LO:TX:a:t=( e = e)	!
.	16qqeee/JJ	.
8EEE^^ 8EE	40ggg#X^^LLL 40bbb)	.
.	40fff#X	.
.	40eee	.
.	40bb	.
.	40gg#X 40bb	.
*clefG2	*	*
8r	40ff#X	.
.	40ee	.
.	40b	.
.	.	.
.	.	.
8B^)	.	.
8r	.	.
*	*clefF4	*
=8	=8	=8
2r	(32AALLL	p <
.	32BB	.
.	32C	.
.	32D	.
.	32E	.
!	!LO:TX:a:Bi:t=gliss.	!
.	32F	.
.	32GJJ	.
*	*clefG2	*
.	32eeLL	.
.	32ffJJJ	[
=9	=9	=9
!	!LO:TX:b:Bi:t=gliss.	!
!	!LO:TX:b:Bi:t=gliss.	!
2r	2ryy	ff ff
.	.	.
.	.	.
.	.	.
.	.	.
.	.	.
.	.	.
*clefF4	*	*
.	.	.
=	=	=
*-	*-	*-
!!!system-decoration: [({(s1,s2)})]
!!!RDF**kern: i = editorial accidental
